src/assets/images/question/user.svg

<svg width="56" height="56" viewBox="0 0 56 56" fill="none" xmlns="http://www.w3.org/2000/svg">
<circle cx="28" cy="28" r="27.5" fill="white" stroke="#C81426"/>
<mask id="mask0" mask-type="alpha" maskUnits="userSpaceOnUse" x="0" y="0" width="56" height="56">
<circle cx="28" cy="28" r="27.5" fill="white" stroke="#C81426"/>
</mask>
<g mask="url(#mask0)">
<path d="M28 32.5C34.3125 32.5 39.4286 27.24 39.4286 20.75C39.4286 14.26 34.3125 9 28 9C21.6875 9 16.5714 14.26 16.5714 20.75C16.5714 27.24 21.6875 32.5 28 32.5ZM36 35.4375H34.5089C32.5268 36.3738 30.3214 36.9063 28 36.9063C25.6786 36.9063 23.4821 36.3738 21.4911 35.4375H20C13.375 35.4375 8 40.9637 8 47.775V51.5938C8 54.0264 9.91964 56 12.2857 56H43.7143C46.0804 56 48 54.0264 48 51.5938V47.775C48 40.9637 42.625 35.4375 36 35.4375Z" fill="#CFCFCF"/>
<circle cx="28" cy="28" r="27.5" stroke="#C81426"/>
</g>
</svg>

<svg xmlns="http://www.w3.org/2000/svg" width="56" height="56" fill="none" viewBox="0 0 56 56"><circle cx="28" cy="28" r="27.5" fill="#fff" stroke="#C81426"/><mask id="a" width="56" height="56" x="0" y="0" maskUnits="userSpaceOnUse"><circle cx="28" cy="28" r="27.5" fill="#fff" stroke="#C81426"/></mask><g mask="url(#a)"><path fill="#CFCFCF" d="M28 32.5c6.313 0 11.429-5.26 11.429-11.75S34.312 9 28 9c-6.313 0-11.429 5.26-11.429 11.75S21.687 32.5 28 32.5zm8 2.938h-1.491A15.203 15.203 0 0 1 28 36.906c-2.321 0-4.518-.532-6.509-1.468H20c-6.625 0-12 5.526-12 12.337v3.819C8 54.026 9.92 56 12.286 56h31.428C46.08 56 48 54.026 48 51.594v-3.819c0-6.811-5.375-12.337-12-12.337z"/><circle cx="28" cy="28" r="27.5" stroke="#C81426"/></g></svg>
